X:3980
T:Maol nan Crogan. a Reel.
O:england
S:Alexander Mackay, A collection of Reels...
B:NLS Glen.344
N:Mc16 in Gore's Scottish Fiddle Music Index
N:Gore guesses 1802, a note (by Murdoch Henderson)
N:on the titlepage says there's an 1832 watermark.
M:C|
L:1/8
K:D
F|D/D/D (FE) D2 DB,|A,2(A,B,) E3 F|D/D/D (FE) D2DB,|A,2 (A,B,) D2D:|
f|d/d/d (fe) d2(dA)|B2  Bd    e3 f|d/d/d (fe) d2dB |AFAB       d2de|
d/d/d (fe) d2 dA |B2  Bd    e2eg|afge       fdec |dBAF       D2D|]
